docs/.gitbook/assets/icon-person-16@light.svg

<svg width="32" height="32" viewBox="0 0 16 16" fill="none" xmlns="http://www.w3.org/2000/svg">
<rect x="0" y="0" width="16" height="16" fill="#fff"/>
<path fill-rule="evenodd" clip-rule="evenodd" d="M8.00003 2.5C7.03354 2.5 6.25003 3.2835 6.25003 4.25C6.25003 5.2165 7.03354 6 8.00003 6C8.96653 6 9.75003 5.2165 9.75003 4.25C9.75003 3.2835 8.96653 2.5 8.00003 2.5ZM4.75003 4.25C4.75003 2.45507 6.20511 1 8.00003 1C9.79496 1 11.25 2.45507 11.25 4.25C11.25 6.04493 9.79496 7.5 8.00003 7.5C6.20511 7.5 4.75003 6.04493 4.75003 4.25ZM8.00004 10C5.96565 10 4.22852 10.9484 3.55999 12.5804C3.47303 12.7927 3.51425 12.9817 3.67045 13.1564C3.84328 13.3496 4.14898 13.5 4.49934 13.5H11.5007C11.8511 13.5 12.1568 13.3496 12.3296 13.1564C12.4858 12.9817 12.527 12.7927 12.4401 12.5804C11.7716 10.9484 10.0344 10 8.00004 10ZM2.17194 12.0118C3.13476 9.66142 5.54384 8.5 8.00004 8.5C10.4562 8.5 12.8653 9.66142 13.8281 12.0118C14.1599 12.8217 13.9367 13.6096 13.4477 14.1564C12.9753 14.6845 12.2549 15 11.5007 15H4.49934C3.74514 15 3.02479 14.6845 2.5524 14.1564C2.06338 13.6096 1.8402 12.8217 2.17194 12.0118Z" fill="#000"/>
</svg>

<svg xmlns="http://www.w3.org/2000/svg" width="32" height="32" fill="none" viewBox="0 0 16 16"><path fill="#fff" d="M0 0h16v16H0z"/><path fill="#000" fill-rule="evenodd" d="M8 2.5A1.75 1.75 0 1 0 8 6a1.75 1.75 0 0 0 0-3.5M4.75 4.25a3.25 3.25 0 1 1 6.5 0 3.25 3.25 0 0 1-6.5 0M8 10c-2.034 0-3.771.948-4.44 2.58-.087.213-.046.402.11.576.173.194.479.344.83.344h7c.351 0 .657-.15.83-.344.156-.174.197-.363.11-.576C11.772 10.948 10.034 10 8 10m-5.828 2.012C3.135 9.662 5.544 8.5 8 8.5s4.865 1.161 5.828 3.512c.332.81.109 1.598-.38 2.144-.473.528-1.193.844-1.947.844H4.499c-.754 0-1.474-.316-1.947-.844-.489-.546-.712-1.334-.38-2.144" clip-rule="evenodd"/></svg>
